X:254
T:Bilsby Hornpipe TS.254
M:C
L:1/8
Q:1/2=84
S:Thomas Sands’ MS,1810,Lincolnshire
R:.hornpipe
N:One of many examples of erratic lead notes in ms
O:England;Lincolnshire
Z:vmp.Ruairidh Greig, 2011
K:A
ed”rpt.added”|:c2A2{B}A>GA>B|c2A2A2B>c|d>fd>B c>ec>A|B>AG>FE2e>d|
c2A2{B}A>GA>B|c2A2A2a>g|f>gf>e ^f>Bc>d|1e>gb>a g>f”_rep.added”e>d:|2 e>gb>ge2z2|]
g>a|b>ag>f e>fg>e|a>ga>e c>de>c|f>=gf>e d>cB>A|G>AB>A G>EF>G|
A>Bc>d e>cac|f>db>a g>fe>d|c>eA>c B>dG>B|1A>Bc>d e>fg>a:|2A>EA>cA2z2|]

